X: 221
T: The London Reel
C: by J Pringle
B: John Pringle "Collection of Reels Strathspeys & Jigs", 1801 p.22#1
Z: 2011 John Chambers <jc:trillian.mit.edu>
R: reel
M: C|
L: 1/8
K: D
V: 1
e | fdcB AGFE | DFAF DFAd | fdcB AGFE DEFD B,3 :|
A | dcde fdcB | Adfa gefd | dcde fdcB | edcB A2A ||
c | dAGF BcdB | AFDF EDB,2 | B,DGF GBAG | FDA,C D3 |]
V: 2 clef=bass middle=d
z |\
d2f2 a2A2 | d2d2 f2d2 | d2f2 a2A2 | d2A2 G3 :|
z | d2f2 b2B2 | A2d2 e2d2 | f2^a2 b2B2 | e2E2 A3 ||
z | d2f2 g2G2 | d2d2 A2G2 | G2G2 B2c2 | d2A2 D3 |]

%%sep 2 1 500

